www/assets/icons/boy.svg

<svg xmlns="http://www.w3.org/2000/svg" width="24" height="24" viewBox="0 0 24 24" fill='currentColor'><path d="M12 7.5c.97 0 1.75-.78 1.75-1.75S12.97 4 12 4s-1.75.78-1.75 1.75S11.03 7.5 12 7.5M14 20v-5h1v-4.5c0-1.1-.9-2-2-2h-2c-1.1 0-2 .9-2 2V15h1v5z"/></svg>

<svg width="24" height="24" viewBox="0 0 24 24" xmlns="http://www.w3.org/2000/svg" fill='currentColor'><path d="M12 7.5C12.97 7.5 13.75 6.72 13.75 5.75C13.75 4.78 12.97 4 12 4C11.03 4 10.25 4.78 10.25 5.75C10.25 6.72 11.03 7.5 12 7.5ZM14 20V15H15V10.5C15 9.4 14.1 8.5 13 8.5H11C9.9 8.5 9 9.4 9 10.5V15H10V20H14Z"/></svg>
